16x16/apps/io.gitlab.osslugaru.Lugaru.svg

<svg xmlns="http://www.w3.org/2000/svg" width="16" height="16" version="1.1">
 <circle style="fill:#8f6943" cx="8.2" cy="13.6" r="2.4"/>
 <rect style="fill:#f4f4f7" width="1" height="2" x="7" y="13" rx=".25" ry=".25"/>
 <rect style="fill:#f4f4f7" width="1" height="2" x="8" y="13" rx=".25" ry=".25"/>
 <path style="fill:#b08458" d="M 1.5410156 0.00390625 C 1.4808919 -0.00114627 1.4276928 -0.001011327 1.3789062 0.0078125 C 1.3138576 0.0195775 1.2587412 0.043743245 1.2128906 0.080078125 C 0.83757827 0.37750058 0.95383376 1.5600601 1.6035156 4.0175781 C 1.9678242 5.395629 2.2678853 6.1291235 2.7851562 6.90625 C 3.1248089 7.4165174 3.2905516 7.6096654 3.8515625 8.1640625 C 4.3539952 8.7175664 4.9870075 9.4912649 5 10.142578 C 4.8557238 11.428296 3 11.999232 3 13.195312 C 3 14.999232 3.9753108 16 5.3007812 16 C 7.0007813 16 7.2556539 14.149986 8 14 C 8.7443461 14.149986 8.9992188 16 10.699219 16 C 12.02469 16 13 14.999232 13 13.195312 C 13 11.999232 11.144276 11.428296 11 10.142578 C 11.012992 9.4912649 11.646005 8.7175664 12.148438 8.1640625 C 12.709448 7.6096654 12.875192 7.4165174 13.214844 6.90625 C 13.732115 6.1291235 14.032176 5.395629 14.396484 4.0175781 C 15.046166 1.5600601 15.162421 0.37750058 14.787109 0.080078125 C 14.741258 0.043743245 14.686144 0.0195775 14.621094 0.0078125 C 14.572307 -0.001011327 14.519104 -0.00114627 14.458984 0.00390625 C 14.278613 0.01906389 14.046245 0.094758205 13.755859 0.23632812 C 13.179981 0.51708636 12.61684 0.93210805 11.982422 1.5429688 C 10.54639 2.9388482 9.5889736 5.9775949 8.3203125 7.9492188 C 8.1743708 8.0496928 8 8 8 8 C 8 8 7.8256292 8.0496936 7.6796875 7.9492188 C 6.4110264 5.9775953 5.4536094 2.9388482 4.0175781 1.5429688 C 3.3831602 0.93210805 2.8200186 0.51708636 2.2441406 0.23632812 C 1.9537539 0.094758205 1.7213866 0.01906389 1.5410156 0.00390625 z"/>
 <path style="fill:#bf3667" d="m 7.9997507,14 c -0.6438473,-0.06585 -1.1967375,-1.02192 -0.932423,-1.493086 0.2820387,-0.371545 0.6360231,-0.511269 0.932423,-0.506809 0.2964007,-0.0045 0.6503846,0.135264 0.932423,0.506809 C 9.1964883,12.97808 8.6435983,13.934143 7.9997507,14 Z"/>
 <g>
  <path style="fill:#f4f4f7" d="m 6.5507775,11.999846 c -0.6338826,0 -1.5494576,-0.447715 -1.5494576,-1 0,-0.552285 -0.060009,-1 0.573873,-1 1.6293298,0.168912 1.7216202,2 0.9755846,2 z"/>
  <circle style="fill:#323232" cx="6.5" cy="11.5" r=".5"/>
 </g>
 <g transform="matrix(-1,0,0,1,16,0)">
  <path style="fill:#f4f4f7" d="m 6.5507775,11.999846 c -0.6338826,0 -1.5494576,-0.447715 -1.5494576,-1 0,-0.552285 -0.060009,-1 0.573873,-1 1.6293298,0.168912 1.7216202,2 0.9755846,2 z"/>
  <circle style="fill:#323232" cx="6.5" cy="11.5" r=".5"/>
 </g>
 <path style="opacity:0.3" d="m 2.0566406,1.3222656 c 0.065769,0.5432102 0.2172384,1.3181492 0.5136719,2.4394532 0.3520409,1.3316464 0.5915861,1.9058365 1.046875,2.5898437 0.3210026,0.4822489 0.3890441,0.5595724 0.9375,1.1015625 0.012718,0.012685 0.025093,0.025711 0.037109,0.039063 0.3586732,0.3951316 0.8545105,0.873097 1.1523437,1.53125 C 6.0152664,8.7144593 6.3469982,8.4644972 6.71875,8.2890625 6.0765921,7.2471391 5.5461906,6.0575279 5.0136719,4.96875 4.4484207,3.8130479 3.861085,2.787064 3.3242188,2.2636719 2.8363306,1.7939 2.4458276,1.5437169 2.0566406,1.3222656 Z m 11.8867184,0 c -0.387839,0.2206846 -0.777995,0.4704138 -1.263671,0.9375 l -0.002,0.00195 -0.002,0.00195 C 12.138915,2.787064 11.551579,3.813048 10.986328,4.96875 10.453424,6.0583159 9.9220876,7.2485597 9.2792969,8.2910156 c 0.3717517,0.1754347 0.7034833,0.4253969 0.9746091,0.734375 0.297683,-0.6593618 0.795141,-1.1376123 1.154297,-1.5332031 0.01202,-0.013352 0.02439,-0.026377 0.03711,-0.039063 0.548456,-0.5419907 0.616499,-0.6193148 0.9375,-1.1015625 0.45529,-0.6840072 0.694834,-1.2581973 1.046876,-2.5898437 0.296432,-1.1213039 0.447901,-1.896243 0.513671,-2.4394532 z"/>
</svg>

<svg xmlns="http://www.w3.org/2000/svg" width="16" height="16"><circle style="fill:#8f6943" cx="8.2" cy="13.6" r="2.4"/><rect style="fill:#f4f4f7" width="1" height="2" x="7" y="13" rx=".25" ry=".25"/><rect style="fill:#f4f4f7" width="1" height="2" x="8" y="13" rx=".25" ry=".25"/><path style="fill:#b08458" d="M1.541.004a.62.62 0 0 0-.162.004.367.367 0 0 0-.166.072c-.375.298-.26 1.48.39 3.938.365 1.378.665 2.111 1.182 2.888.34.51.506.704 1.067 1.258.502.554 1.135 1.327 1.148 1.979-.144 1.285-2 1.856-2 3.052C3 15 3.975 16 5.3 16 7 16 7.257 14.15 8 14c.744.15 1 2 2.7 2 1.325 0 2.3-1 2.3-2.805 0-1.196-1.856-1.767-2-3.052.013-.652.646-1.425 1.148-1.979.561-.554.727-.747 1.067-1.258.517-.777.817-1.51 1.181-2.888.65-2.458.766-3.64.391-3.938a.367.367 0 0 0-.166-.072.62.62 0 0 0-.162-.004c-.18.015-.413.09-.703.232-.576.281-1.14.696-1.774 1.307C10.546 2.939 9.59 5.978 8.32 7.949 8.174 8.05 8 8 8 8s-.174.05-.32-.05C6.41 5.977 5.454 2.938 4.018 1.542 3.383.933 2.82.517 2.244.236 1.954.095 1.721.02 1.541.004z"/><path style="fill:#bf3667" d="M8 14c-.644-.066-1.197-1.022-.933-1.493.282-.372.636-.511.933-.507.296-.004.65.135.932.507.264.471-.288 1.427-.932 1.493z"/><path style="fill:#f4f4f7" d="M6.55 12c-.633 0-1.549-.448-1.549-1s-.06-1 .574-1c1.63.169 1.722 2 .976 2z"/><circle style="fill:#323232" cx="6.5" cy="11.5" r=".5"/><g transform="matrix(-1 0 0 1 16 0)"><path style="fill:#f4f4f7" d="M6.55 12c-.633 0-1.549-.448-1.549-1s-.06-1 .574-1c1.63.169 1.722 2 .976 2z"/><circle style="fill:#323232" cx="6.5" cy="11.5" r=".5"/></g><path style="opacity:.3" d="M2.057 1.322c.065.543.217 1.318.513 2.44.352 1.331.592 1.906 1.047 2.59.321.482.39.56.938 1.101a1 1 0 0 1 .037.04c.358.394.854.872 1.152 1.53a3 3 0 0 1 .975-.734c-.642-1.042-1.173-2.231-1.705-3.32-.566-1.156-1.153-2.182-1.69-2.705a5.872 5.872 0 0 0-1.267-.942zm11.886 0a5.87 5.87 0 0 0-1.263.938l-.002.002-.002.002c-.537.523-1.124 1.549-1.69 2.705-.533 1.09-1.064 2.28-1.707 3.322a3 3 0 0 1 .975.734c.298-.659.795-1.137 1.154-1.533l.037-.039c.549-.542.617-.62.938-1.101.455-.684.695-1.259 1.047-2.59.296-1.122.448-1.897.513-2.44z"/></svg>
